!!!OTL: AUF ERDEN ZU ALLER STUND
!!!ARE: Europa, Mitteleuropa, Deutschland, Rheinland
!!!SCT: E0114
!!!YEM: Copyright 1995, estate of Helmut Schaffrath.
**kern
*ICvox
*Ivox
*M4/4
*k[f#]
*G:
{4d
=1
2g
4f#
4g
=2
2a
4g}
{4a
=3
4b
4dd
4cc
4b
=4
2a
4r}
{8g
8a
=5
4b
4b
4b
8a
8b
=6
4.cc
8dd
4cc}
{8cc
8b
=7
4a
4a
4a
8b
8cc
=8
4.dd
8ee
4dd}
{4dd
=9
2.g
4b
=10
2.a
8g
8a
=11
4b
4b
8dd
8cc
4a
=12
2g
4r}
==
!!!AGN: erzaehlendes Volks - Lied, Schalk -, Schelmen - Lied, betrogene Liebe, Ballade ?
!!!ONB: ESAC (Essen Associative Code) Database: ERK1
!!!AMT: simple quadruple
!!!AIN: vox
!!!EED: Helmut Schaffrath
!!!EEV: 1.0
*-
